!!!OTL: 1189. Vom Namen und der Taufe Jesu. / [Ansingelied zum Sylvesterabend.]
!!!ARE: Europa, Mitteleuropa, Deutschland, Westfalen, Paderborn
!!!SCT: E1189
!!!TXL: @@DE
!!!YEM: Copyright 1995, estate of Helmut Schaffrath.
**kern	**text
*ICvox	*
*M2/4	*
*k[f#]	*
*G:	*
!LO:TX:a:t=Mäßig langsam.	!
!LO:TX:a:t=Mündlich aus dem Paderbornſchen.	!
{8d	Was
=1	=1
8g	trug
8g	Ma-
8g	-ria
8a	unter
=2	=2
8b/	ih-
8a	-rem
8g	Her-
8g}	-ʒen?
=3	=3
{4b	Schön-
16ddL	-ſte
16ccJ	.
16bL	Ma-
16aJ	.
=4	=4
4b/	-ri-
!LO:N:vis=4	!
8g;}	-a!
{16gL	Ein
16bJ	.
=5	=5
8dd	klei-
8dd	-nes
8dd	Kind-
8dd	-lein
=6	=6
8ee	oh-
8dd	-ne
8cc	Schmer-
8b}	-ʒen
=7	=7
{8a	trug
8b	Ma-
8cc	-ri-
8cc	-a
=8	=8
8dd	oh-
8cc	-ne
8b	Schmer-
8a}	-ʒen.
=9	=9
{4b	Schön-
16ddL	-ſte
16ccJ	.
16bL	Ma-
16gJ	.
=10	=10
4a	-ri-
8g;}	-a!
==	==
!!!AGN: Ansinge -, Brauchtums - Lied, Kirchen - Fest, Silvester, Namenstag, und Taufe Jesu
!!!ONB: ESAC (Essen Associative Code) Database: ERK3
!!!AMT: simple duple
!!!AIN: vox
!!!EED: Helmut Schaffrath
!!!EEV: 1.0
!!!GTL: Ansingelieder an Volks- und Kirchenfesten.
!!!URL-scan: https://rosdok.uni-rostock.de/mcrviewer/recordIdentifier/rosdok_ppn745177999/iview2/phys_0110.iview2?x=188.1684953369795&y=1109.271031846467&scale=0.701185927818147&rotation=0&layout=singlePageLayout
!!!ENC: Anna Maria Matuszewska
!!!EEV: 2024/12/23
*-	*-
